assets/img/braze_icons/cryptocurrency-04.svg

<svg fill="none" height="24" viewBox="0 0 24 24" width="24" xmlns="http://www.w3.org/2000/svg"><g fill="#801ed7"><path d="m2.70711 1.29289c-.39053-.390521-1.02369-.390521-1.41422 0-.390521.39053-.390521 1.02369 0 1.41422l2 2c.39053.39052 1.02369.39052 1.41422 0 .39052-.39053.39052-1.02369 0-1.41422z"/><path d="m9 2c0-.55228-.44772-1-1-1s-1 .44772-1 1v1.5c0 .55228.44772 1 1 1s1-.44772 1-1z"/><path d="m22.7071 1.29289c-.3905-.390521-1.0237-.390521-1.4142 0l-2 2c-.3905.39053-.3905 1.02369 0 1.41422.3905.39052 1.0237.39052 1.4142 0l2-2c.3905-.39053.3905-1.02369 0-1.41422z"/><path d="m20.5 7c-.5523 0-1 .44772-1 1s.4477 1 1 1h1.5c.5523 0 1-.44772 1-1s-.4477-1-1-1z"/><path d="m2 17h1.5c.55228 0 1-.4477 1-1s-.44772-1-1-1h-1.5c-.55228 0-1 .4477-1 1s.44772 1 1 1z"/><path d="m4.70711 20.7071c.39052-.3905.39052-1.0237 0-1.4142-.39053-.3905-1.02369-.3905-1.41422 0l-2 2c-.390521.3905-.390521 1.0237 0 1.4142.39053.3905 1.02369.3905 1.41422 0z"/><path d="m20.7071 19.2929c-.3905-.3905-1.0237-.3905-1.4142 0s-.3905 1.0237 0 1.4142l2 2c.3905.3905 1.0237.3905 1.4142 0s.3905-1.0237 0-1.4142z"/><path d="m17 20.5c0-.5523-.4477-1-1-1s-1 .4477-1 1v1.5c0 .5523.4477 1 1 1s1-.4477 1-1z"/><path d="m18 15c-.5523 0-1 .4477-1 1s.4477 1 1 1h3.5c.5523 0 1-.4477 1-1s-.4477-1-1-1z"/><path d="m17 2v4c0 .55228-.4477 1-1 1s-1-.44772-1-1v-4c0-.55228.4477-1 1-1s1 .44772 1 1z"/><path d="m2 7c-.55228 0-1 .44772-1 1s.44772 1 1 1h4c.55228 0 1-.44772 1-1s-.44772-1-1-1z"/><path d="m8 17c.55228 0 1 .4477 1 1v4c0 .5523-.44772 1-1 1s-1-.4477-1-1v-4c0-.5523.44772-1 1-1z"/><path d="m12.4635 6.28045c-.3013-.09789-.6258-.09789-.927 0-.2327.07558-.4013.20113-.5123.29542-.0959.08137-.1964.18199-.2806.26625l-3.90141 3.90138c-.08425.0842-.18488.1847-.26626.2806-.09429.1111-.21984.2797-.29542.5123-.09789.3013-.09789.6258 0 .927.07558.2327.20113.4013.29543.5124.08137.0958.18199.1964.26625.2806l3.90131 3.9013c.0842.0843.1848.1849.2807.2663.111.0943.2796.2198.5123.2954.3012.0979.6257.0979.927 0 .2326-.0756.4012-.2011.5123-.2954.0959-.0814.1964-.182.2806-.2663l3.9014-3.9013c.0842-.0842.1849-.1848.2662-.2806.0943-.1111.2199-.2797.2955-.5124.0979-.3012.0979-.6257 0-.927-.0756-.2326-.2012-.4012-.2955-.5123-.0813-.0959-.182-.1964-.2662-.2806l-3.9014-3.90136c-.0842-.08426-.1847-.18489-.2806-.26627-.1111-.09429-.2797-.21984-.5123-.29542z"/></g></svg>

<svg width="24" height="24" viewBox="0 0 24 24" fill="none" xmlns="http://www.w3.org/2000/svg">
<path d="M2.70711 1.29289C2.31658 0.902369 1.68342 0.902369 1.29289 1.29289C0.902369 1.68342 0.902369 2.31658 1.29289 2.70711L3.29289 4.70711C3.68342 5.09763 4.31658 5.09763 4.70711 4.70711C5.09763 4.31658 5.09763 3.68342 4.70711 3.29289L2.70711 1.29289Z" fill="#801ED7"/>
<path d="M9 2C9 1.44772 8.55228 1 8 1C7.44772 1 7 1.44772 7 2V3.5C7 4.05228 7.44772 4.5 8 4.5C8.55228 4.5 9 4.05228 9 3.5V2Z" fill="#801ED7"/>
<path d="M22.7071 1.29289C22.3166 0.902369 21.6834 0.902369 21.2929 1.29289L19.2929 3.29289C18.9024 3.68342 18.9024 4.31658 19.2929 4.70711C19.6834 5.09763 20.3166 5.09763 20.7071 4.70711L22.7071 2.70711C23.0976 2.31658 23.0976 1.68342 22.7071 1.29289Z" fill="#801ED7"/>
<path d="M20.5 7C19.9477 7 19.5 7.44772 19.5 8C19.5 8.55228 19.9477 9 20.5 9H22C22.5523 9 23 8.55228 23 8C23 7.44772 22.5523 7 22 7H20.5Z" fill="#801ED7"/>
<path d="M2 17H3.5C4.05228 17 4.5 16.5523 4.5 16C4.5 15.4477 4.05228 15 3.5 15H2C1.44772 15 1 15.4477 1 16C1 16.5523 1.44772 17 2 17Z" fill="#801ED7"/>
<path d="M4.70711 20.7071C5.09763 20.3166 5.09763 19.6834 4.70711 19.2929C4.31658 18.9024 3.68342 18.9024 3.29289 19.2929L1.29289 21.2929C0.902369 21.6834 0.902369 22.3166 1.29289 22.7071C1.68342 23.0976 2.31658 23.0976 2.70711 22.7071L4.70711 20.7071Z" fill="#801ED7"/>
<path d="M20.7071 19.2929C20.3166 18.9024 19.6834 18.9024 19.2929 19.2929C18.9024 19.6834 18.9024 20.3166 19.2929 20.7071L21.2929 22.7071C21.6834 23.0976 22.3166 23.0976 22.7071 22.7071C23.0976 22.3166 23.0976 21.6834 22.7071 21.2929L20.7071 19.2929Z" fill="#801ED7"/>
<path d="M17 20.5C17 19.9477 16.5523 19.5 16 19.5C15.4477 19.5 15 19.9477 15 20.5V22C15 22.5523 15.4477 23 16 23C16.5523 23 17 22.5523 17 22V20.5Z" fill="#801ED7"/>
<path d="M18 15C17.4477 15 17 15.4477 17 16C17 16.5523 17.4477 17 18 17H21.5C22.0523 17 22.5 16.5523 22.5 16C22.5 15.4477 22.0523 15 21.5 15H18Z" fill="#801ED7"/>
<path d="M17 2V6C17 6.55228 16.5523 7 16 7C15.4477 7 15 6.55228 15 6V2C15 1.44772 15.4477 1 16 1C16.5523 1 17 1.44772 17 2Z" fill="#801ED7"/>
<path d="M2 7C1.44772 7 1 7.44772 1 8C1 8.55228 1.44772 9 2 9H6C6.55228 9 7 8.55228 7 8C7 7.44772 6.55228 7 6 7H2Z" fill="#801ED7"/>
<path d="M8 17C8.55228 17 9 17.4477 9 18V22C9 22.5523 8.55228 23 8 23C7.44772 23 7 22.5523 7 22V18C7 17.4477 7.44772 17 8 17Z" fill="#801ED7"/>
<path d="M12.4635 6.28045C12.1622 6.18256 11.8377 6.18256 11.5365 6.28045C11.3038 6.35603 11.1352 6.48158 11.0242 6.57587C10.9283 6.65724 10.8278 6.75786 10.7436 6.84212L6.84219 10.7435C6.75794 10.8277 6.65731 10.9282 6.57593 11.0241C6.48164 11.1352 6.35609 11.3038 6.28051 11.5364C6.18262 11.8377 6.18262 12.1622 6.28051 12.4634C6.35609 12.6961 6.48164 12.8647 6.57594 12.9758C6.65731 13.0716 6.75793 13.1722 6.84219 13.2564L10.7435 17.1577C10.8277 17.242 10.9283 17.3426 11.0242 17.424C11.1352 17.5183 11.3038 17.6438 11.5365 17.7194C11.8377 17.8173 12.1622 17.8173 12.4635 17.7194C12.6961 17.6438 12.8647 17.5183 12.9758 17.424C13.0717 17.3426 13.1722 17.242 13.2564 17.1577L17.1578 13.2564C17.242 13.1722 17.3427 13.0716 17.424 12.9758C17.5183 12.8647 17.6439 12.6961 17.7195 12.4634C17.8174 12.1622 17.8174 11.8377 17.7195 11.5364C17.6439 11.3038 17.5183 11.1352 17.424 11.0241C17.3427 10.9282 17.242 10.8277 17.1578 10.7435L13.2564 6.84214C13.1722 6.75788 13.0717 6.65725 12.9758 6.57587C12.8647 6.48158 12.6961 6.35603 12.4635 6.28045Z" fill="#801ED7"/>
</svg>
